X:1
T:Copenhagen, CM
T:Copenhagen, CM
T:Peter Christian Lutkin, 1905
T:Public Domain Courtesy of the Cyber Hymnal™
C:Peter Christian Lutkin, 1905
Z:Public Domain
Z:Courtesy of the Cyber Hymnal™
%%score ( 1 2 ) ( 3 4 )
L:1/8
Q:1/4=100
M:4/4
K:D
V:1 treble 
V:2 treble 
V:3 bass 
V:4 bass 
V:1
 [DF]2 [DF][DG] [DA]3 [Dd] | [Gc]2 [DG]2 B3 z B | [FA]2 [DA]2 [^DA]2 ([EG][=DF]) | ([DF]4 [CE]4) | %4
 [CF]2 [^A,F][B,F] [CF]3 [A,F] | [FB]2 [Ec]2 [Dd]2 (cB) | A3 [DF] [DA]2 (GE) | D8 |] %8
V:2
 x8 | x4 D2 E2 x | x8 | x8 | x8 | F6 C2 | A3 C2 x3 | D8 |] %8
V:3
 [D,A,]2 [D,A,][E,A,] [F,A,]3 [F,A,] | [E,G,]2 [E,A,]2 [A,,B,]2 [G,C]2 x | %2
 [F,D]2 [F,A,]2 [F,=C]2 B,2 | A,8 | [F,^A,]2 F,[F,^G,] [F,A,]3 [E,F,] | %5
 [D,^G,]2 [C,^A,]2 [B,,B,]2 [E,C]2 | [F,D]3 [F,A,] [E,B,]2 (A,G,) | [D,F,]8 |] %8
V:4
 x8 | x9 | x6 (G,^G,) | A,8 | x2 F, x5 | x8 | x6 A,,2 | x8 |] %8

